X:303
M:C|
L:1/8
K:A
e|cBAc E/E/E (=G2|G)B/c/ d=G B2GB|cBAc E/E/E A2|Ac/d/ ed c2A:|
c|Ac/d/ eA cAeA|=GB/c/ dG B2 GB|Ac/d/ eA cAeA|Ac/d/ ed c2Ac|

